X:1
T:Come to Jesus! Come Away
T:Come to Jesus! Come Away
T:Anonymous, 1885
T:Public Domain Courtesy of the Cyber Hymnal™
Z:Public Domain
Z:Courtesy of the Cyber Hymnal™
%%score ( 1 2 ) ( 3 4 )
L:1/8
Q:1/2=105
M:2/2
K:G
V:1 treble 
V:2 treble 
V:3 bass 
V:4 bass 
V:1
 [GB]6 [FA]2 | G4 [DF]4 | E4 [CG]4 | [B,D]6 [DG]2 | [DF]4 [DG]4 | [Dc]4 [DB]4 | [^CB]4 [CA]4 | %7
w: 1.~Come to|Je- sus!|come a-|way; For-|sake thy|sins, oh,|why de-|
w: 2.~Come to|Je- sus!|sin no|more, But|on thy|bend- ed|knees im-|
w: 3.~Come to|Je- sus!|lift an|eye: There’s|prayer in|ev- ery|con- trite|
w: 4.~Come to|Je- sus!|all is|free Hark!|how He|calls, “Come|un- to|
w: 5.~Come to|Je- sus!|cling to|Him, He’ll|keep thee|far from|paths of|
w: 6.~Come to|Je- sus!|do not|stand, The|Fa- ther|draws— ’tis|His com-|
w: 7.~Come to|Je- sus!|Lord, I|come; Wea-|ry of|sin, no|more I’d|
 D6 [A,C]2 | B,4 [A,D]4 | [DG]4 [DB]4 | [=Fd]6 [FG]2 | [Ee]8 | z4 [CE]4 | [B,D]4 [DG]4 | %14
w: lay? His|arms are|o- pen|night and|day,|He|waits to|
w: plore, And|knock in|faith at|mer- cy’s|door,|He’s|sure to|
w: sigh And|ev- ery|groan, for|God is|nigh,|He’ll|bow His|
w: Me! I|cast none|out, I’ll|par- don|thee.”|Oh,|thou shalt|
w: sin, Thou|shalt at|last the|vic- tory|win;|And|He will|
w: mand, And|none shall|pluck thee|from His|hand,|No—|that can|
w: roam, But|with my|Sav- ior|be at|home;|I|know He’ll|
 [FB]6 [FA]2 | G8 |] %16
w: wel- come|thee.|
w: wel- come|thee.|
w: ear to|thee.|
w: wel- come|be.|
w: wel- come|thee.|
w: ne- ver|be.|
w: wel- come|me.|
V:2
 x8 | G4 x4 | E4 x4 | x8 | x8 | x8 | x8 | D6 x2 | B,4 x4 | x8 | x8 | x8 | x8 | x8 | x8 | G8 |] %16
V:3
 [G,D]6 [G,C]2 | [G,B,]4 [B,,G,]4 | [C,G,]4 [E,G,]4 | G,6 [B,D]2 | [A,C]4 [G,B,]4 | [F,A,]4 G,4 | %6
 [E,G,]4 [A,,G,]4 | [D,F,]6 [D,F,]2 | [G,,G,]4 [C,F,]4 | [B,,G,]4 G,4 | [G,B,]6 [G,B,]2 | [C,C]8 | %12
 z4 [C,G,]4 | [D,G,]4 [D,B,]4 | [D,D]6 [D,C]2 | [G,B,]8 |] %16
V:4
 x8 | x8 | x8 | G,6 x2 | x8 | x4 G,4 | x8 | x8 | x8 | x4 G,4 | x8 | x8 | x8 | x8 | x8 | x8 |] %16

